material/.icons/material/broom.svg

<svg xmlns="http://www.w3.org/2000/svg" viewBox="0 0 24 24"><path d="M19.36 2.72l1.42 1.42-5.72 5.71c1.07 1.54 1.22 3.39.32 4.59L9.06 8.12c1.2-.9 3.05-.75 4.59.32l5.71-5.72M5.93 17.57c-2.01-2.01-3.24-4.41-3.58-6.65l4.88-2.09 7.44 7.44-2.09 4.88c-2.24-.34-4.64-1.57-6.65-3.58z"/></svg>

<?xml version="1.0" encoding="UTF-8"?><!DOCTYPE svg PUBLIC "-//W3C//DTD SVG 1.1//EN" "http://www.w3.org/Graphics/SVG/1.1/DTD/svg11.dtd"><svg xmlns="http://www.w3.org/2000/svg" xmlns:xlink="http://www.w3.org/1999/xlink" version="1.1" id="mdi-broom" width="24" height="24" viewBox="0 0 24 24"><path d="M19.36,2.72L20.78,4.14L15.06,9.85C16.13,11.39 16.28,13.24 15.38,14.44L9.06,8.12C10.26,7.22 12.11,7.37 13.65,8.44L19.36,2.72M5.93,17.57C3.92,15.56 2.69,13.16 2.35,10.92L7.23,8.83L14.67,16.27L12.58,21.15C10.34,20.81 7.94,19.58 5.93,17.57Z" /></svg>
